static/img/kroki/657093301985b93a812361ec23d3ffe2.svg

<?xml version="1.0" encoding="us-ascii" standalone="no"?><svg xmlns="http://www.w3.org/2000/svg" xmlns:xlink="http://www.w3.org/1999/xlink" contentStyleType="text/css" height="352px" preserveAspectRatio="none" style="width:346px;height:352px;" version="1.1" viewBox="0 0 346 352" width="346px" zoomAndPan="magnify"><defs/><g><!--class aws_ec2_volume--><g id="elem_aws_ec2_volume"><rect codeLine="22" fill="#3D176E" height="39.7891" id="aws_ec2_volume" rx="2.5" ry="2.5" style="stroke:#000D19;stroke-width:0.5;" width="185" x="7" y="306.37"/><ellipse cx="22" cy="326.2645" fill="#ADD1B2" rx="11" ry="11" style="stroke:#181818;stroke-width:1.0;"/><path d="M24.9688,331.9052 Q24.3906,332.202 23.75,332.3427 Q23.1094,332.4989 22.4063,332.4989 Q19.9063,332.4989 18.5781,330.8583 Q17.2656,329.202 17.2656,326.077 Q17.2656,322.952 18.5781,321.2958 Q19.9063,319.6395 22.4063,319.6395 Q23.1094,319.6395 23.75,319.7958 Q24.4063,319.952 24.9688,320.2489 L24.9688,322.9677 Q24.3438,322.3895 23.75,322.1239 Q23.1563,321.8427 22.5313,321.8427 Q21.1875,321.8427 20.5,322.9208 Q19.8125,323.9833 19.8125,326.077 Q19.8125,328.1708 20.5,329.2489 Q21.1875,330.3114 22.5313,330.3114 Q23.1563,330.3114 23.75,330.0458 Q24.3438,329.7645 24.9688,329.1864 L24.9688,331.9052 Z " fill="#000000"/><text fill="#D9B8FF" font-family="Helvetica" font-size="17" lengthAdjust="spacing" textLength="143" x="41" y="332.1498">aws_ec2_volume</text></g><!--class aws_ec2_volume_type--><g id="elem_aws_ec2_volume_type"><rect codeLine="24" fill="#3D176E" height="39.7891" id="aws_ec2_volume_type" rx="2.5" ry="2.5" style="stroke:#000D19;stroke-width:0.5;" width="231" x="68" y="206.58"/><ellipse cx="83" cy="226.4745" fill="#ADD1B2" rx="11" ry="11" style="stroke:#181818;stroke-width:1.0;"/><path d="M85.9688,232.1152 Q85.3906,232.412 84.75,232.5527 Q84.1094,232.7089 83.4063,232.7089 Q80.9063,232.7089 79.5781,231.0683 Q78.2656,229.412 78.2656,226.287 Q78.2656,223.162 79.5781,221.5058 Q80.9063,219.8495 83.4063,219.8495 Q84.1094,219.8495 84.75,220.0058 Q85.4063,220.162 85.9688,220.4589 L85.9688,223.1777 Q85.3438,222.5995 84.75,222.3339 Q84.1563,222.0527 83.5313,222.0527 Q82.1875,222.0527 81.5,223.1308 Q80.8125,224.1933 80.8125,226.287 Q80.8125,228.3808 81.5,229.4589 Q82.1875,230.5214 83.5313,230.5214 Q84.1563,230.5214 84.75,230.2558 Q85.3438,229.9745 85.9688,229.3964 L85.9688,232.1152 Z " fill="#000000"/><text fill="#D9B8FF" font-family="Helvetica" font-size="17" lengthAdjust="spacing" textLength="189" x="102" y="232.3598">aws_ec2_volume_type</text></g><!--class aws_region--><g id="elem_aws_region"><rect codeLine="26" fill="#3D176E" height="39.7891" id="aws_region" rx="2.5" ry="2.5" style="stroke:#000D19;stroke-width:0.5;" width="137" x="18" y="7"/><ellipse cx="33" cy="26.8945" fill="#ADD1B2" rx="11" ry="11" style="stroke:#181818;stroke-width:1.0;"/><path d="M35.9688,32.5352 Q35.3906,32.832 34.75,32.9727 Q34.1094,33.1289 33.4063,33.1289 Q30.9063,33.1289 29.5781,31.4883 Q28.2656,29.832 28.2656,26.707 Q28.2656,23.582 29.5781,21.9258 Q30.9063,20.2695 33.4063,20.2695 Q34.1094,20.2695 34.75,20.4258 Q35.4063,20.582 35.9688,20.8789 L35.9688,23.5977 Q35.3438,23.0195 34.75,22.7539 Q34.1563,22.4727 33.5313,22.4727 Q32.1875,22.4727 31.5,23.5508 Q30.8125,24.6133 30.8125,26.707 Q30.8125,28.8008 31.5,29.8789 Q32.1875,30.9414 33.5313,30.9414 Q34.1563,30.9414 34.75,30.6758 Q35.3438,30.3945 35.9688,29.8164 L35.9688,32.5352 Z " fill="#000000"/><text fill="#D9B8FF" font-family="Helvetica" font-size="17" lengthAdjust="spacing" textLength="95" x="52" y="32.7798">aws_region</text></g><!--class aws_service_quota--><g id="elem_aws_service_quota"><rect codeLine="28" fill="#3D176E" height="39.7891" id="aws_service_quota" rx="2.5" ry="2.5" style="stroke:#000D19;stroke-width:0.5;" width="199" x="140" y="106.79"/><ellipse cx="155" cy="126.6845" fill="#ADD1B2" rx="11" ry="11" style="stroke:#181818;stroke-width:1.0;"/><path d="M157.9688,132.3252 Q157.3906,132.622 156.75,132.7627 Q156.1094,132.9189 155.4063,132.9189 Q152.9063,132.9189 151.5781,131.2783 Q150.2656,129.622 150.2656,126.497 Q150.2656,123.372 151.5781,121.7158 Q152.9063,120.0595 155.4063,120.0595 Q156.1094,120.0595 156.75,120.2158 Q157.4063,120.372 157.9688,120.6689 L157.9688,123.3877 Q157.3438,122.8095 156.75,122.5439 Q156.1563,122.2627 155.5313,122.2627 Q154.1875,122.2627 153.5,123.3408 Q152.8125,124.4033 152.8125,126.497 Q152.8125,128.5908 153.5,129.6689 Q154.1875,130.7314 155.5313,130.7314 Q156.1563,130.7314 156.75,130.4658 Q157.3438,130.1845 157.9688,129.6064 L157.9688,132.3252 Z " fill="#000000"/><text fill="#D9B8FF" font-family="Helvetica" font-size="17" lengthAdjust="spacing" textLength="157" x="174" y="132.5698">aws_service_quota</text></g><!--link aws_ec2_volume_type to aws_ec2_volume--><g id="link_aws_ec2_volume_type_aws_ec2_volume"><path codeLine="30" d="M166.9,246.8 C153.33,262.6 134.08,285.01 119.63,301.84 " fill="none" id="aws_ec2_volume_type-to-aws_ec2_volume" style="stroke:#1A83AF;stroke-width:2.0;"/><polygon fill="#1A83AF" points="116.06,304.99,124.9541,300.7599,119.314,301.1937,118.8801,295.5535,116.06,304.99" style="stroke:#1A83AF;stroke-width:2.0;"/></g><!--link aws_region to aws_ec2_volume--><g id="link_aws_region_aws_ec2_volume"><path codeLine="31" d="M77.71,47.22 C61.43,85.71 29.99,174.47 50.5,246.37 C56.27,266.61 68.89,286.71 79.88,301.56 " fill="none" id="aws_region-to-aws_ec2_volume" style="stroke:#1A83AF;stroke-width:2.0;"/><polygon fill="#1A83AF" points="83.23,305,80.9916,295.4089,80.214,301.012,74.6109,300.2345,83.23,305" style="stroke:#1A83AF;stroke-width:2.0;"/></g><!--link aws_region to aws_ec2_volume_type--><g id="link_aws_region_aws_ec2_volume_type"><path codeLine="32" d="M90.1,47.22 C95.1,71.41 105.52,113.67 122.5,146.58 C132.86,166.66 148.51,186.77 161.36,201.66 " fill="none" id="aws_region-to-aws_ec2_volume_type" style="stroke:#1A83AF;stroke-width:2.0;"/><polygon fill="#1A83AF" points="165.25,205.11,162.3338,195.7028,161.9575,201.3471,156.3132,200.9708,165.25,205.11" style="stroke:#1A83AF;stroke-width:2.0;"/></g><!--link aws_region to aws_service_quota--><g id="link_aws_region_aws_service_quota"><path codeLine="33" d="M116.73,47.22 C141.98,63.36 178,86.38 204.5,103.32 " fill="none" id="aws_region-to-aws_service_quota" style="stroke:#1A83AF;stroke-width:2.0;"/><polygon fill="#1A83AF" points="208.33,106.41,202.8899,98.1999,204.1135,103.7228,198.5905,104.9464,208.33,106.41" style="stroke:#1A83AF;stroke-width:2.0;"/></g><!--link aws_service_quota to aws_ec2_volume_type--><g id="link_aws_service_quota_aws_ec2_volume_type"><path codeLine="34" d="M228.44,147.01 C219.54,162.54 206.99,184.46 197.41,201.19 " fill="none" id="aws_service_quota-to-aws_ec2_volume_type" style="stroke:#1A83AF;stroke-width:2.0;"/><polygon fill="#1A83AF" points="194.54,205.2,202.4906,199.3873,197.0299,200.8641,195.5531,195.4034,194.54,205.2" style="stroke:#1A83AF;stroke-width:2.0;"/></g><!--SRC=[fP1DJy9048Rl_HMRz4n28GfSJ2e9qGinuisOPjgTRJTjTt5s2q7ZVvU2ccKBzE1rtYVlnnII8yDwRNUinZf5Ce4ffLe3GSrY8hsTwqeJ2uK0CPxuua8hsmiieKRsWDK6hSp09ruAcPKAZM4ZHxg7hCn9DueVxIs1Cdi9bNMeUGN6nDQIJ1kBJXa-IwT2-AHl6evvDBd53gQ98_qWm-6GHpCVwOswklkFMCaFP97xjAMssAdPYJXGLrksX5EoC_HNlzZn2JYNAcStpktvs8aKqibzLG3NsvOMK1atnbWar7Qtndbd5SwcN4pEme-NuApz78EjIJ0R9HjTDVlwdy7NMI5fhJoLC9TQUKU3j94P9k-Djd3GpXaDNiCedexZnTlWpaiA7El_OuUug-n9uQ0xeS_y6m00]--></g></svg>

<svg xmlns="http://www.w3.org/2000/svg" width="346" height="352" preserveAspectRatio="none" style="width:346px;height:352px"><rect width="185" height="39.789" x="7" y="306.37" fill="#3D176E" rx="2.5" ry="2.5" style="stroke:#000d19;stroke-width:.5"/><circle cx="22" cy="326.264" r="11" fill="#ADD1B2" style="stroke:#181818;stroke-width:1"/><path d="M24.969 331.905q-.578.297-1.219.438-.64.156-1.344.156-2.5 0-3.828-1.64-1.312-1.657-1.312-4.782t1.312-4.781q1.328-1.656 3.828-1.656.703 0 1.344.156.656.156 1.219.453v2.719q-.625-.579-1.219-.844-.594-.281-1.219-.281-1.343 0-2.031 1.078-.688 1.062-.688 3.156 0 2.094.688 3.172.688 1.062 2.031 1.062.625 0 1.219-.265.594-.281 1.219-.86v2.72Z"/><text x="41" y="332.15" fill="#D9B8FF" font-family="Helvetica" font-size="17" textLength="143">aws_ec2_volume</text><rect width="231" height="39.789" x="68" y="206.58" fill="#3D176E" rx="2.5" ry="2.5" style="stroke:#000d19;stroke-width:.5"/><circle cx="83" cy="226.475" r="11" fill="#ADD1B2" style="stroke:#181818;stroke-width:1"/><path d="M85.969 232.115q-.578.297-1.219.438-.64.156-1.344.156-2.5 0-3.828-1.64-1.312-1.657-1.312-4.782t1.312-4.781q1.328-1.656 3.828-1.656.703 0 1.344.156.656.156 1.219.453v2.719q-.625-.578-1.219-.844-.594-.281-1.219-.281-1.344 0-2.031 1.078-.688 1.062-.688 3.156 0 2.094.688 3.172.688 1.062 2.031 1.062.625 0 1.219-.265.594-.281 1.219-.86v2.72Z"/><text x="102" y="232.36" fill="#D9B8FF" font-family="Helvetica" font-size="17" textLength="189">aws_ec2_volume_type</text><rect width="137" height="39.789" x="18" y="7" fill="#3D176E" rx="2.5" ry="2.5" style="stroke:#000d19;stroke-width:.5"/><circle cx="33" cy="26.895" r="11" fill="#ADD1B2" style="stroke:#181818;stroke-width:1"/><path d="M35.969 32.535q-.578.297-1.219.438-.64.156-1.344.156-2.5 0-3.828-1.64-1.312-1.657-1.312-4.782t1.312-4.781q1.328-1.656 3.828-1.656.703 0 1.344.156.656.156 1.219.453v2.719q-.625-.578-1.219-.844-.594-.281-1.219-.281-1.343 0-2.031 1.078-.688 1.062-.688 3.156 0 2.094.688 3.172.688 1.062 2.031 1.062.625 0 1.219-.265.594-.281 1.219-.86v2.72Z"/><text x="52" y="32.78" fill="#D9B8FF" font-family="Helvetica" font-size="17" textLength="95">aws_region</text><rect width="199" height="39.789" x="140" y="106.79" fill="#3D176E" rx="2.5" ry="2.5" style="stroke:#000d19;stroke-width:.5"/><circle cx="155" cy="126.684" r="11" fill="#ADD1B2" style="stroke:#181818;stroke-width:1"/><path d="M157.969 132.325q-.578.297-1.219.438-.64.156-1.344.156-2.5 0-3.828-1.64-1.312-1.657-1.312-4.782t1.312-4.781q1.328-1.656 3.828-1.656.703 0 1.344.156.656.156 1.219.453v2.719q-.625-.579-1.219-.844-.594-.281-1.219-.281-1.344 0-2.031 1.078-.688 1.062-.688 3.156 0 2.094.688 3.172.688 1.062 2.031 1.062.625 0 1.219-.265.594-.281 1.219-.86v2.72Z"/><text x="174" y="132.57" fill="#D9B8FF" font-family="Helvetica" font-size="17" textLength="157">aws_service_quota</text><path fill="none" d="M166.9 246.8c-13.57 15.8-32.82 38.21-47.27 55.04" style="stroke:#1a83af;stroke-width:2"/><path fill="#1A83AF" d="m116.06 304.99 8.894-4.23-5.64.434-.434-5.64-2.82 9.436z" style="stroke:#1a83af;stroke-width:2"/><path fill="none" d="M77.71 47.22C61.43 85.71 29.99 174.47 50.5 246.37c5.77 20.24 18.39 40.34 29.38 55.19" style="stroke:#1a83af;stroke-width:2"/><path fill="#1A83AF" d="m83.23 305-2.238-9.591-.778 5.603-5.603-.777L83.23 305z" style="stroke:#1a83af;stroke-width:2"/><path fill="none" d="M90.1 47.22c5 24.19 15.42 66.45 32.4 99.36 10.36 20.08 26.01 40.19 38.86 55.08" style="stroke:#1a83af;stroke-width:2"/><path fill="#1A83AF" d="m165.25 205.11-2.916-9.407-.376 5.644-5.645-.376 8.937 4.139z" style="stroke:#1a83af;stroke-width:2"/><path fill="none" d="M116.73 47.22c25.25 16.14 61.27 39.16 87.77 56.1" style="stroke:#1a83af;stroke-width:2"/><path fill="#1A83AF" d="m208.33 106.41-5.44-8.21 1.224 5.523-5.524 1.223 9.74 1.464z" style="stroke:#1a83af;stroke-width:2"/><path fill="none" d="M228.44 147.01c-8.9 15.53-21.45 37.45-31.03 54.18" style="stroke:#1a83af;stroke-width:2"/><path fill="#1A83AF" d="m194.54 205.2 7.95-5.813-5.46 1.477-1.477-5.46-1.013 9.796z" style="stroke:#1a83af;stroke-width:2"/></svg>
